X:374
T: EIN MAEKEN VON ACHTEIN JAHREN
N: E0211B
O: Europa, Mitteleuropa, Deutschland, Westfalen, Paderborn
R: erzaehlendes Volks - Lied, Mahn -, Moral - Lied, Strafe; Untreue
M: 6/8
L: 1/16
K: E
E2 | E3BB2B2A2=c2 | B4=G2F4
G2 | E3F=G2A2B2G2 | F8z2
EF | =G3FE2G2F2E2 | A4=c2B4
A2 | =G3FE2F3GF2 | E8z2

